X: 1
T: The Boy On The Hilltop
R: reel
M: 4/4
L: 1/8
K: Ador
A3B B2AG|EGGF G2 AG|EA A2 BGBd|egdB BGdB|
A3B B2AG|EGGF G2 AB|c3 A B3 c |dBGA BA A2||
A2 (3Bcd egdB|GB~B2 defg|aged egdB|GBdB BAA2|
aeed egdB|GB~B2 defg|af (3gfe fdef|g3 a gedB||

